X: 9234
T: Dan Cronin's
R: slide
M: 12/8
K: Gmajor
GAB D2E G2A B2G|A2G B2G A2G E2D|
GAB D2E G2A B2e|d2B ABA G3G3:|
g3 f2d ege d3|ged B2d e2d def|
g3 f2d ege d3|efg f2d e3 e2f|
g3 f2d ege d2G|A2G B2G A2G E2D|
GAB D2E G2A B2e|d2B ABA G3G3||

